react/assets/icons/sun.svg

<svg role="img" xmlns="http://www.w3.org/2000/svg" width="48px" height="48px" viewBox="0 0 24 24" aria-labelledby="sunIconTitle" stroke-linecap="square" stroke-linejoin="miter" fill="none"> <title id="sunIconTitle">Sun</title> <circle cx="12" cy="12" r="4"/> <path d="M12 5L12 3M12 21L12 19M5 12L2 12 5 12zM22 12L19 12 22 12zM16.9497475 7.05025253L19.0710678 4.92893219 16.9497475 7.05025253zM4.92893219 19.0710678L7.05025253 16.9497475 4.92893219 19.0710678zM16.9497475 16.9497475L19.0710678 19.0710678 16.9497475 16.9497475zM4.92893219 4.92893219L7.05025253 7.05025253 4.92893219 4.92893219z"/> </svg>

<svg xmlns="http://www.w3.org/2000/svg" width="48" height="48" viewBox="0 0 24 24" aria-labelledby="sunIconTitle" stroke-linecap="square" fill="none"><circle cx="12" cy="12" r="4"/><path d="M12 5V3m0 18v-2m-7-7H2h3zm17 0h-3 3zm-5.05-4.95L19.07 4.93 16.95 7.05zM4.929 19.071L7.05 16.95 4.93 19.07zm12.02-2.121l2.122 2.121-2.121-2.121zM4.93 4.929L7.05 7.05 4.93 4.93z"/></svg>
